style-guide/assets/xd-icons-more.svg

<svg viewBox="0 0 24 24" xmlns="http://www.w3.org/2000/svg" xmlns:xlink="http://www.w3.org/1999/xlink">
  <path d="M12 18c-1.654 0-3 1.346-3 3s1.346 3 3 3 3-1.346 3-3-1.346-3-3-3m0-12c1.654 0 3-1.346 3-3s-1.346-3-3-3-3 1.346-3 3 1.346 3 3 3m0 3c-1.654 0-3 1.346-3 3s1.346 3 3 3 3-1.346 3-3-1.346-3-3-3"/>
</svg>

<?xml version="1.0" encoding="UTF-8"?>
<svg width="24px" height="24px" viewBox="0 0 24 24" version="1.1" xmlns="http://www.w3.org/2000/svg" xmlns:xlink="http://www.w3.org/1999/xlink">
    <!-- Generator: Sketch 51.3 (57544) - http://www.bohemiancoding.com/sketch -->
    <title>more</title>
    <desc>Created with Sketch.</desc>
    <defs>
        <path d="M12,18 C10.346,18 9,19.346 9,21 C9,22.654 10.346,24 12,24 C13.654,24 15,22.654 15,21 C15,19.346 13.654,18 12,18 M12,6 C13.654,6 15,4.654 15,3 C15,1.346 13.654,0 12,0 C10.346,0 9,1.346 9,3 C9,4.654 10.346,6 12,6 M12,9 C10.346,9 9,10.346 9,12 C9,13.654 10.346,15 12,15 C13.654,15 15,13.654 15,12 C15,10.346 13.654,9 12,9" id="path-1"></path>
    </defs>
    <g id="more" stroke="none" stroke-width="1" fill="none" fill-rule="evenodd">
        <mask id="mask-2" fill="white">
            <use xlink:href="#path-1"></use>
        </mask>
        <use id="icons/24px/More" fill="#000000" xlink:href="#path-1"></use>
    </g>
</svg>
